X: 1
T: Canty Auld Man, The
M: 6/8
L: 1/8
R: jig
K: Gmaj
GAG GAB|cde e2g|dBG dBG|FGA A2B|
GAG GAB|cde e2g|dBG cAF|G3 G3:|
|:cdc cBA|dBG dBG|e2c dBG|FGA A2B|
cdc cBA|dBG dBG|efg BcA|G3 G3:||
